X:1000
T: Tirnaskea Lasses
T: Gearrchail\'i Th\'ir na Sceach
S: B.Breathnach:"Ceol Rince na hEireann" IV/202
Z: B.Black
L: 1/8
M: 4/4
R: reel
K: G
BBBA G2 BG|FADA FADA|BBBA G2 Bc|dBAc BEED :|
e2 ge bege|defg afdf|efge bege|dBAc BEED|
e2 ge bege|defg afdf||gfed efge|dBAc BEED ||
